blockchains/ethereum/assets/0x133834219045eD0cf692619D63abcd251e6B1ca1/logo.svg

<svg fill="none" height="250" viewBox="0 0 250 250" width="250" xmlns="http://www.w3.org/2000/svg"><path d="m124.831 247.377c-68.1414-.415-123.23593-55.822-122.72593-123.422.5155-68.383 55.90203-122.95751 124.27493-122.45151 67.275.4975 122.026 56.11501 121.619 123.54451-.409 67.69-55.835 122.739-123.168 122.329zm46.707-109.941c0 6.698-.013 13.396.005 20.094.013 5.127 2.939 8.66 7.18 8.726 4.098.063 7.275-3.671 7.292-8.66.026-7.625.084-15.251-.015-22.875-.095-7.301.169-14.664-.683-21.886-1.824-15.4555-16.346-28.105-31.935-28.298-10.112-.1255-18.674 3.692-25.611 10.999-1.616 1.7015-2.493 1.7405-4.094-.0615-6.198-6.977-14.169-10.6365-23.406-10.905-18.1714-.5275-34.1999 14.0245-34.9499 32.2055-.573 13.888-.136 27.817-.103 41.728.007 2.912 1.5225 5.101 3.884 6.652 2.1525 1.413 4.5815 1.559 6.7425.246 2.5015-1.521 3.851-3.877 3.8425-6.96-.038-13.189-.0515-26.379-.0125-39.569.0335-11.294 8.584-19.8865 19.674-19.865 10.9094.0215 18.9874 8.355 19.0194 19.674.026 9.48 0 18.96-.001 28.44 0 3.812-.078 7.627.029 11.437.122 4.349 3.421 7.803 7.253 7.794 3.782-.009 7.049-3.561 7.189-7.832.031-.927.008-1.855.009-2.782.002-12.572-.084-25.144.034-37.714.101-10.793 8.857-19.069 19.835-19.0025 10.542.064 18.753 8.4385 18.82 19.2475.038 6.389.006 12.778.002 19.167z" fill="#7f61f6"/><path d="m171.54 137.437c.002-6.389.034-12.778-.006-19.166-.067-10.809-8.278-19.1848-18.819-19.2483-10.978-.0665-19.734 8.2093-19.836 19.0023-.118 12.571-.031 25.143-.034 37.714 0 .928.022 1.856-.008 2.782-.14 4.271-3.408 7.823-7.19 7.832-3.832.01-7.131-3.445-7.253-7.793-.107-3.81-.029-7.625-.028-11.438.001-9.48.027-18.96 0-28.44-.031-11.319-8.109-19.6528-19.019-19.6738-11.09-.0215-19.6405 8.5708-19.674 19.8658-.039 13.189-.0255 26.379.0125 39.569.009 3.083-1.3405 5.439-3.8425 6.959-2.1605 1.314-4.59 1.167-6.7425-.246-2.3615-1.55-3.877-3.739-3.884-6.651-.033-13.911-.47-27.841.103-41.728.75-18.1819 16.778-32.7338 34.9495-32.2063 9.237.268 17.209 3.928 23.407 10.905 1.601 1.802 2.478 1.763 4.093.0615 6.938-7.307 15.5-11.1245 25.611-10.999 15.589.1935 30.112 12.843 31.935 28.2978.852 7.223.588 14.585.683 21.886.099 7.624.041 15.251.015 22.876-.017 4.988-3.194 8.723-7.292 8.659-4.24-.066-7.166-3.598-7.18-8.726-.016-6.699-.003-13.397-.001-20.094z" fill="#fff"/></svg>

<svg width="250" height="250" viewBox="0 0 250 250" fill="none" xmlns="http://www.w3.org/2000/svg">
<path d="M124.831 247.377C56.6896 246.962 1.59507 191.555 2.10507 123.955C2.62057 55.572 58.0071 0.99749 126.38 1.50349C193.655 2.00099 248.406 57.6185 247.999 125.048C247.59 192.738 192.164 247.787 124.831 247.377ZM171.538 137.436C171.538 144.134 171.525 150.832 171.543 157.53C171.556 162.657 174.482 166.19 178.723 166.256C182.821 166.319 185.998 162.585 186.015 157.596C186.041 149.971 186.099 142.345 186 134.721C185.905 127.42 186.169 120.057 185.317 112.835C183.493 97.3795 168.971 84.73 153.382 84.537C143.27 84.4115 134.708 88.229 127.771 95.536C126.155 97.2375 125.278 97.2765 123.677 95.4745C117.479 88.4975 109.508 84.838 100.271 84.5695C82.0996 84.042 66.0711 98.594 65.3211 116.775C64.7481 130.663 65.1851 144.592 65.2181 158.503C65.2251 161.415 66.7406 163.604 69.1021 165.155C71.2546 166.568 73.6836 166.714 75.8446 165.401C78.3461 163.88 79.6956 161.524 79.6871 158.441C79.6491 145.252 79.6356 132.062 79.6746 118.872C79.7081 107.578 88.2586 98.9855 99.3486 99.007C110.258 99.0285 118.336 107.362 118.368 118.681C118.394 128.161 118.368 137.641 118.367 147.121C118.367 150.933 118.289 154.748 118.396 158.558C118.518 162.907 121.817 166.361 125.649 166.352C129.431 166.343 132.698 162.791 132.838 158.52C132.869 157.593 132.846 156.665 132.847 155.738C132.849 143.166 132.763 130.594 132.881 118.024C132.982 107.231 141.738 98.955 152.716 99.0215C163.258 99.0855 171.469 107.46 171.536 118.269C171.574 124.658 171.542 131.047 171.538 137.436Z" fill="#7F61F6"/>
<path d="M171.54 137.437C171.542 131.048 171.574 124.659 171.534 118.271C171.467 107.462 163.256 99.0862 152.715 99.0227C141.737 98.9562 132.981 107.232 132.879 118.025C132.761 130.596 132.848 143.168 132.845 155.739C132.845 156.667 132.867 157.595 132.837 158.521C132.697 162.792 129.429 166.344 125.647 166.353C121.815 166.363 118.516 162.908 118.394 158.56C118.287 154.75 118.365 150.935 118.366 147.122C118.367 137.642 118.393 128.162 118.366 118.682C118.335 107.363 110.257 99.0292 99.347 99.0082C88.257 98.9867 79.7065 107.579 79.673 118.874C79.634 132.063 79.6475 145.253 79.6855 158.443C79.6945 161.526 78.345 163.882 75.843 165.402C73.6825 166.716 71.253 166.569 69.1005 165.156C66.739 163.606 65.2235 161.417 65.2165 158.505C65.1835 144.594 64.7465 130.664 65.3195 116.777C66.0695 98.5951 82.0975 84.0432 100.269 84.5707C109.506 84.8387 117.478 88.4987 123.676 95.4757C125.277 97.2777 126.154 97.2387 127.769 95.5372C134.707 88.2302 143.269 84.4127 153.38 84.5382C168.969 84.7317 183.492 97.3812 185.315 112.836C186.167 120.059 185.903 127.421 185.998 134.722C186.097 142.346 186.039 149.973 186.013 157.598C185.996 162.586 182.819 166.321 178.721 166.257C174.481 166.191 171.555 162.659 171.541 157.531C171.525 150.832 171.538 144.134 171.54 137.437Z" fill="white"/>
</svg>
